X: 296
T:Christmas Eve in the Morning (6/8)
M:6/4
L:1/4
C:Fredaman Stickle
R:Slow jig
A:Shetland
Z:Steve Mansfield December 2000
K:A Mix
d2e|: ~f2d f&gt;ga | e2d c2A | B2G d2c | B G2 G3 | e2f g2f | e2d c2B | A&gt;BA
ABc |1 d3 :|2 d3 d3 |
:e3 (e e/)d/e/f/] | g3 B3 | A3 A3 | B2c dB2 | e3 (e e/)d/e/f/] | g3 B3 |
A2e d2B | A3 A3 :|
<end>
<start>
